X: 23697
T: Lisburn Lasses, The
R: reel
M: 4/4
K: Dmajor
DFdF AFdF|DFdF GE E2|DFdF AFdF|GBAG FD D2|
DFdF AFdF|D3A GE E2|DFdF AFdF|GBAG FD D2||
d2 (3efg fdec|dfeg fdBc|d2 (3efg fdec|dBAG FD D2|
d2 (3efg fdec|dfaf ge e2|afge fdec|dBAG FD D2||

